22x22/panel/bluetooth-offline.svg

<svg xmlns="http://www.w3.org/2000/svg" width="22" height="22" version="1.1">
 <defs>
  <style id="current-color-scheme" type="text/css">
   .ColorScheme-Text { color:#323a41; } .ColorScheme-Highlight { color:#4285f4; } .ColorScheme-NeutralText { color:#ff9800; } .ColorScheme-PositiveText { color:#4caf50; } .ColorScheme-NegativeText { color:#f44336; }
  </style>
 </defs>
 <path style="opacity:0.3;fill:currentColor" class="ColorScheme-Text" d="M 11.5,3 C 10.378027,3 9.336832,3.3638673 8.46875,3.9882812 L 11,6.5195312 V 5 h 0.5 c 0.20775,0 0.39305,0.13292 0.46875,0.3125 l 2.875,2.84375 L 15.25,8.53125 14.8125,8.875 14.015625,9.535156 17,12.519531 V 9 C 17,5.676 14.547,3 11.5,3 Z M 6,3.5 4.5,5 6.3652344,6.8652344 C 6.1329301,7.5279779 6,8.2453479 6,9 v 4 c 0,3.324 2.453,6 5.5,6 1.855025,0 3.474814,-1.004688 4.46875,-2.53125 L 17,17.5 18.5,16 16.855469,14.355469 12.933594,10.433594 12.240234,9.740234 12,9.5 11,8.5 7.4472656,4.9472656 Z m 6,3.1875 V 7.5195312 L 13.326172,8.8457031 13.78125,8.46875 Z M 10.613281,11.113281 12,12.5 v 2.8125 l 1.40625,-1.40625 0.683594,0.683594 -2.121094,2.097656 c -0.0252,0.0599 -0.0798,0.11106 -0.125,0.15625 C 11.75335,16.93415 11.6385,17 11.5,17 H 11 V 12.0625 L 8.84375,13.84375 C 8.75325,13.93425 8.63807,14 8.5,14 H 8 v -0.5 c 0,-0.15322 0.079,-0.28328 0.1875,-0.375 z"/>
</svg>

<svg xmlns="http://www.w3.org/2000/svg" width="22" height="22"><defs><style id="current-color-scheme" type="text/css"></style></defs><path style="opacity:.3;fill:currentColor;color:#323a41" d="M11.5 3a5.165 5.165 0 0 0-3.031.988L11 6.52V5h.5c.208 0 .393.133.469.313l2.875 2.843.406.375-.438.344-.796.66L17 12.52V9c0-3.324-2.453-6-5.5-6zM6 3.5 4.5 5l1.865 1.865A6.44 6.44 0 0 0 6 9v4c0 3.324 2.453 6 5.5 6 1.855 0 3.475-1.005 4.469-2.531L17 17.5l1.5-1.5-1.645-1.645-3.921-3.921-.694-.694L12 9.5l-1-1-3.553-3.553zm6 3.188v.832l1.326 1.326.455-.377zm-1.387 4.425L12 12.5v2.813l1.406-1.407.684.684-2.121 2.097c-.025.06-.08.112-.125.157A.484.484 0 0 1 11.5 17H11v-4.938l-2.156 1.782A.485.485 0 0 1 8.5 14H8v-.5c0-.153.079-.283.188-.375z"/></svg>
